!!!COM: Haydn, Franz Joseph
!!!CDT: 1732/03/31-1809/05/31
!!!CNT: Austrian
!!!OTL: Sonata No. 53 in E minor
!!!SCT: Hob. XVI:34
!!!OMV: 3
!!!OMD: Finale: Molto vivace.
!!!ODT: ~1777
**kern	**kern	**dynam
*staff2	*staff1	*staff1/2
*>[A,A,B,B,C,C,D,D,E,E,F,F,G,G,H]	*>[A,A,B,B,C,C,D,D,E,E,F,F,G,G,H]	*>[A,A,B,B,C,C,D,D,E,E,F,F,G,G,H]
*>norep[A,B,C,D,E,F,G,H]	*>norep[A,B,C,D,E,F,G,H]	*>norep[A,B,C,D,E,F,G,H]
*>A	*>A	*>A
*clefF4	*clefG2	*clefF4
*k[f#]	*k[f#]	*k[f#]
*e:	*e:	*e:
*M2/4	*M2/4	*M2/4
*MM160	*MM160	*MM160
!	!LO:TX:b:i:t=Innocentemente	!LO:DY:a:rj
8r	8g'	p
=1	=1	=1
!	!	!LO:DY:b=2:rj
(16ELL	(<8.gL	p
16B	.	.
16G	.	.
16BJJ	16aJk	.
16ELL	8b'L)	.
16B	.	.
16G	8ee`J	.
16BJJ	.	.
=2	=2	=2
16F#LL	(8dd#L	.
16B	.	.
16A	8ff#'J)	.
16BJJ	.	.
16F#LL	8r	.
16B	.	.
16A	(8b	.
16BJJ	.	.
=3	=3	=3
16ELL	8ee'L)	.
16B	.	.
16G	(8eeJ	.
16BJJ	.	.
16D#LL	8ff#'L)	.
16B	.	.
16F#	(8ff#J	.
16BJJ	.	.
=4	=4	=4
.	(8qqaaPP	.
16ELL	4ggpT)	.
16B	.	.
16D	.	.
16BJJ	.	.
16BBLL	8ff#'L)	.
16B	.	.
16D#	8ff#'J	.
16BJJ)	.	.
=5	=5	=5
(16ELL	(8.ggL	<
16B	.	.
16G	.	.
16BJJ	16aaJk	.
16ELL	8bb'L)	.
16B	.	.
16G	8bb`J	.
16BJJ	.	[[
!!LO:LB:g=z
=6	=6	=6
16CLL	(8aaL	f
16A	.	.
16E	8ccc'J)	.
16AJJ	.	.
16CLL	8r	.
16A	.	.
16E	(8aa	.
16AJJ	.	.
=7	=7	=7
16DLL	8ff#'L)	.
16c	.	.
16A	8ff#`J	.
16cJJ	.	.
.	(gg16qqP	.
16DLL	(8ff#pL)	.
16c	.	.
16A	16eeL	.
16cJJ	16ddJJ	.
=8	=8	=8
4G 4B)	4gg)	.
8GG	8r	.
=:|!	=:|!	=:|!
*>B	*>B	*>B
8r	8bb'	p
*clefG2	*	*clefG2
=9	=9	=9
!	!	!LO:DY:b=2:rj
16BLL	(8.bbL	p
16g	.	.
16d	.	.
16gJJ	16cccJk	.
16BLL	8ddd'L)	.
16g	.	.
16d	8ddd`J	.
16gJJ	.	.
=10	=10	=10
16cLL	(8dddL	.
16g	.	.
16e	8ee'J)	.
16gJJ	.	.
16cLL	8r	.
16g	.	.
16e	8ee'	.
16gJJ	.	.
=11	=11	=11
16ALL	(8.aaL	.
16f#	.	.
16c	.	.
16f#JJ	16bbJk	.
16ALL	8ccc'L)	.
16f#	.	.
16c	8ccc`J	.
16f#JJ	.	.
!!LO:LB:g=z
=12	=12	=12
16BLL	(8cccL	.
16f#	.	.
16d#	8dd#'J)	.
16f#JJ	.	.
*clefF4	*	*clefF4
16ALL	8r	.
16d#	.	.
16B	(8b	.
16d#JJ	.	.
=13	=13	=13
16GLL	8ee'L)	.
16e	.	.
16B	(8eeJ	.
16eJJ	.	.
16D#LL	8ff#'L)	.
16B	.	.
16F#	(8ff#J	.
16BJJ	.	.
=14	=14	=14
.	(aa8qqP	.
16ELL	4ggpT)	.
16B	.	.
16G	.	.
16BJJ	.	.
16BBLL	8ff#'L)	.
16B	.	.
16D#	(8bbJ	.
16BJJ	.	.
=15	=15	=15
16CLL	8ee'L)	<
16B	.	.
16G	(8eeJ	.
16BJJ	.	.
16CLL	8ccc'L)	.
16A	.	.
16G	(8cccJ	.
16AJJ	.	[
=16	=16	=16
16BBLL	(4dd#)	fz
16A	.	.
16F#	.	.
16AJJ	.	.
16CLL	8ee'L)	.
16G	.	.
16E	(8eeJ	p
16GJJ	.	.
!!LO:LB:g=z
=17	=17	=17
16AALL	8ff#'L)	.
16F#	.	.
16C	8ff#'J	.
16F#JJ	.	.
.	(16eeqqP	.
16BBLL	(8dd#pL)	.
16A	.	.
16F#	16cc#L	.
16AJJ	16bJJ	.
=18	=18	=18
4E 4G	4ee)	.
8EE	8r	.
=:|!|:	=:|!|:	=:|!|:
*>C	*>C	*>C
*k[f#c#g#d#]	*k[f#c#g#d#]	*k[f#c#g#d#]
8r	8gg#'	mf
*clefG2	*	*clefG2
=19	=19	=19
!	!	!LO:DY:b=2:rj
4e 4g#	(8.gg#L	mf
.	16aaJk	.
8r	8bb'L)	.
8g#' 8b'	8ee`J	.
=20	=20	=20
8f#' 8a'	(8dd#L	.
8r	8ff#'J)	.
*clefF4	*	*clefF4
8A'	16r	.
.	(16BLL	.
8r	16c#	.
.	16d#JJ	.
=21	=21	=21
8G#'	16eLL	.
.	16f#	.
8r	16g#	.
.	16aJJ	.
8g#'	16bLL	.
.	16cc#	.
8r	16dd#	.
.	16eeJJ)	.
=22	=22	=22
.	(b8qqP	.
(8f#L	(4apT)	.
8BJ	.	.
8e)	8g#L)	.
8r	8gg#'J	.
*clefG2	*	*clefG2
=23	=23	=23
4e 4g#	(32gg#LLL	.
.	32aa#	.
.	32gg#	.
.	32ff##J	.
.	16gg#	.
.	16aa#JJ	.
8r	8bbL)	.
8d#' 8f#'	8b#`J	.
!!LO:LB:g=z
=24	=24	=24
4e 4g#	(8.cc#SSsL	.
.	16eeJk	.
8r	8gg#'L)	.
8e' 8f#'	8a#`J	.
=25	=25	=25
8d#' 8f#'L	8b'L	.
(8e	((16eeL	.
.	16cc#JJ)	.
8f#'J)	(16dd#LL	.
.	16b)	.
*clefF4	*	*clefF4
8F#'	(16cc#	.
.	16a#JJ)	.
=26	=26	=26
(4B	4b)	.
8BB)	8r	.
=:|!|:	=:|!|:	=:|!|:
*>D	*>D	*>D
8r	8ff#'	.
=27	=27	=27
4B 4d#	(8.ff#L	.
.	16gg#Jk	.
8r	16aanLL	.
.	16ff#	.
8A' 8B'	16ee	.
.	16dd#JJ	.
=28	=28	=28
4G# 4B	16eeLL	.
.	16dd#	.
.	16ee	.
.	16dd#JJ	.
8r	16eeLL)	.
.	(16bb	.
*clefG2	*	*clefG2
8g#' 8b'	16aa	.
.	16gg#JJ	.
=29	=29	=29
4a 4cc#	8.ff#SSsL	.
.	16gg#Jk	.
8r	16aaLL	.
.	16ff#	.
*clefF4	*	*clefF4
8A' 8B'	16een	.
.	16dd#JJ	.
!!LO:LB:g=z
=30	=30	=30
4G# 4B	16eeLL	.
.	16dd#	.
.	16ee	.
.	16dd#JJ	.
8r	16eeLL)	.
.	(16bb	.
*clefG2	*	*clefG2
8g#' 8b'	16aa	.
.	16gg#JJ	.
=31	=31	=31
4a 4cc#	16ff#LL	.
.	16gg#	.
.	16aa	.
.	16gg#JJ	.
8r	16ff#LL	.
.	16ee	.
*clefF4	*	*clefF4
8A#' 8c#'	16dd#	.
.	16cc#JJ	.
=32	=32	=32
4B	16bLL>	.
.	16a#	.
.	16b	.
.	16cc#JJ	.
4r	16bLL	.
.	16an	.
.	16g#	.
.	16f#JJ	.
=33	=33	=33
4E 4B	(8.g#SsSL)	.
.	16aJk	.
8r	8bL)	.
8G#' 8B'	8e`J	.
=34	=34	=34
8F#' 8A'	(8d#L	.
8r	8f#'J)	.
8AA'	16r	.
.	(16BLL	.
8r	16c#	.
.	16d#JJ	.
!!LO:LB:g=z
=35	=35	=35
4GG#	16eLL	.
.	16f#	.
.	16g#	.
.	16aJJ	.
8r	16bLL	.
.	16cc#	.
8g#'	16dd#	.
.	16eeJJ)	.
=36	=36	=36
.	(b8qq	.
(8f#L	(<4aT)	.
8BJ	.	.
8e)	16g#LL>)	.
.	(16b	.
8r	16cc#	.
.	16dd#JJ	.
=37	=37	=37
2r	16eeLL	.
.	16ff#	.
.	16gg#	.
.	16aaJJ	.
.	16bbLL	.
.	16gg#	.
.	16ff#	.
.	16eeJJ)	.
=38	=38	=38
8A'	8r	.
8r	8ccc#'	.
*clefG2	*	*clefG2
8a'	8r	.
8r	8ddd#'	.
=39	=39	=39
8g#'L	(16eeeLL	.
.	16bb	.
(8aJ	16ccc#	.
.	16aaJJ	.
8b'L)	(16gg#LL	.
.	16ee)	.
8B'J	(16ff#	.
.	16dd#JJ)	.
=40	=40	=40
(4e	4ee)	.
*clefF4	*	*clefF4
8E)	8r	.
!!LO:LB:g=z
=:|!	=:|!	=:|!
*>E	*>E	*>E
*k[f#]	*k[f#]	*k[f#]
8r	8g'	p
=41	=41	=41
!	!	!LO:DY:b=2
16ELL	(8.gL	p
16B	.	.
16G	.	.
16BJJ	16aJk	.
16ELL	8b'L)	.
16B	.	.
16G	8ee`J	.
16BJJ	.	.
=42	=42	=42
16F#LL	(8dd#L	.
16B	.	.
16A	8ff#'J)	.
16BJJ	.	.
16F#LL	8r	.
16B	.	.
16A	(8b	.
16BJJ	.	.
=43	=43	=43
16ELL	8ee'L)	.
16B	.	.
16G	(8eeJ	.
16BJJ	.	.
16D#LL	8ff#'L)	.
16B	.	.
16F#	(8ff#J	.
16BJJ	.	.
=44	=44	=44
.	(aa8qqP	.
16ELL	4ggpT)	.
16B	.	.
16G	.	.
16BJJ	.	.
16BBLL	8ff#'L)	.
16B	.	.
16D#	8ff#'J	.
16BJJ	.	.
=45	=45	=45
16ELL	(8.ggL	<
16B	.	.
16G	.	.
16BJJ	16aaJk	.
16ELL	8bb'L)	.
16B	.	.
16G	8bb`J	.
16BJJ	.	[
!!LO:LB:g=z
=46	=46	=46
16CLL	(8aa'L	f
16A	.	.
16E	8ccc'J)	.
16AJJ	.	.
16CLL	8r	.
16A	.	.
16E	(8aa	.
16AJJ	.	.
=47	=47	=47
16DLL	8ff#'L)	.
16c	.	.
16A	8ff#`J	.
16cJJ	.	.
.	(16ggqqP	.
16DLL	(8ff#pL)	.
16c	.	.
16A	16eeL	.
16cJJ	16ddJJ	.
=48	=48	=48
4G 4B	4gg)	.
8GG	8r	.
8r	8bb'	p
*clefG2	*	*clefG2
=49	=49	=49
!	!	!LO:DY:b=2
16BLL	(8.bbL	p
16g	.	.
16d	.	.
16gJJ	16cccJk	.
16BLL	8ddd'L)	.
16g	.	.
16d	8ddd`J	.
16gJJ	.	.
=50	=50	=50
16cLL	(8dddL	.
16g	.	.
16e	8ee'J)	.
16gJJ	.	.
16cLL	8r	.
16g	.	.
16e	8ee'	.
16gJJ	.	.
=51	=51	=51
16ALL	(8.aaL	.
16f#	.	.
16c	.	.
16f#JJ	16bbJk	.
16ALL	8cccL)	.
16f#	.	.
16c	8ccc`J	.
16f#JJ	.	.
!!LO:LB:g=z
=52	=52	=52
16BLL	(8cccL	.
16f#	.	.
16d#	8dd#'J)	.
16f#JJ	.	.
*clefF4	*	*clefF4
16ALL	8r	.
16d#X	.	.
16B	(8b	.
16d#JJ	.	.
=53	=53	=53
16GLL	8ee'L)	.
16e	.	.
16B	(8eeJ	.
16eJJ	.	.
16D#LL	8ff#'L)	.
16B	.	.
16F#	8ff#`J	.
16BJJ	.	.
=54	=54	=54
.	(aa8qqP	.
16ELL	(4ggpT)	.
16B	.	.
16G	.	.
16BJJ	.	.
16BBLL	8ff#'L)	.
16B	.	.
16D#	(8bbJ	.
16BJJ	.	.
=55	=55	=55
16CLL	8ee'L)	<
16B	.	.
16G	(8eeJ	.
16BJJ	.	.
16CLL	8ccc'L)	.
16A	.	.
16G	(8cccJ	.
16AJJ	.	[[
=56	=56	=56
16BBLL	(4dd#)	fz
16A	.	.
16F#	.	.
16AJJ	.	.
16CLL	8ee'L)	.
16G	.	.
16E	(8eeJ	p
16GJJ	.	.
!!LO:LB:g=z
=57	=57	=57
16AALL	8ff#'L)	.
16F#	.	.
16C	8ff#'J	.
16F#JJ	.	.
.	(ee16qqP	.
16BBLL	(8dd#pL)	.
16A	.	.
16F#	16cc#L	.
16AJJ	16bJJ	.
=58	=58	=58
4E 4G	4ee)	.
8EE	8r	.
8r	8bb'	.
*clefG2	*	*clefG2
=59	=59	=59
16BLL	(16bbLL	mf
16g	16ddd	.
16d	16ccc	.
16gJJ	16eeeJJ	.
16BLL	8ddd'L)	.
16g	.	.
16d	8ddd`J	.
16gJJ	.	.
=60	=60	=60
16cLL	(16dddLL	.
16g	16ee	.
16e	16dd#	.
16gJJ	16eeJJ	.
16cLL	16dd#LL	.
16g	16ee	.
16e	16dd#	.
16gJJ	16eeJJ)	.
=61	=61	=61
16ALL	(8.aaSSsL	.
16f#	.	.
16c	.	.
16f#JJ	16bbJk	.
16ALL	8ccc'L)	.
16f#	.	.
16c	8ccc`J	.
16f#JJ	.	.
!!LO:LB:g=z
=62	=62	=62
16BLL	(4ccc	>
16f#	.	]
16d#	.	.
16f#JJ	.	.
16BLL	8dd#'L)	.
16f#	.	.
16d#	8dd#'J	.
16f#JJ	.	.
*clefF4	*	*clefF4
=63	=63	=63
16GLL	(16ggLL	<
16e	16ff#	.
16B	16aa	.
16eJJ	16ggJJ	.
16GLL	8bb'L)	.
16e	.	[
16B	8bb`J	.
16eJJ	.	.
=64	=64	=64
16ALL	(16bbLL	.
16e	16cc	.
16c	16b	.
16eJJ	16ccJJ	.
16ALL	16ddLL	.
16e	16cc	.
16c	16b	.
16eJJ	16ccJJ)	.
=65	=65	=65
16F#LL	(8.ff#SsSL	.
16d	.	<
16A	.	.
16d'JJ	16ggJk	.
16F#LL	8aa'L)	.
16d	.	.
16A	8aa`J	.
16dJJ	.	.
=66	=66	=66
16GLL	(8aaL	.
16d	.	.
16B	8b'J)	.
16dJJ	.	.
16BBLL	(8ggL	.
16G	.	.
16D	8dd'J)	.
16GJJ	.	.
!!LO:LB:g=z
=67	=67	=67
16CLL	(8eeL	.
16A	.	.
16E	8a'J)	.
16AJJ	.	.
16DLL	(8ccL	.
16c	.	.
16A	8f#'J)	.
16cJJ	.	.
=68	=68	=68
[4G; (4c;	(4a;	f
8G;] 8B;)	8g;L)	.
8r	8g'J	p
=69	=69	=69
!	!	!LO:DY:b=2
16ELL	(8.gL	p
16B	.	.
16G	.	.
16BJJ	16aJk	.
16ELL	8b'L)	.
16B	.	.
16G	8ee`J	.
16BJJ	.	.
=70	=70	=70
16F#LL	(8dd#L	.
16B	.	.
16A	8ff#'J)	.
16BJJ	.	.
16F#LL	8r	.
16B	.	.
16A	8b'	.
16BJJ	.	.
=71	=71	=71
16ELL	8r	.
16B	.	.
16G	8ee'	.
16BJJ	.	.
16D#LL	8r	.
16B	.	.
16F#	(8ff#	.
16BJJ	.	.
!!LO:LB:g=z
=72	=72	=72
.	(aa8qqP	.
16ELL	4ggpT)	.
16B	.	.
16G	.	.
16BJJ	.	.
16BBLL	8ff#L)	.
16B	.	.
16D#	(8bbJ	.
16BJJ	.	.
=73	=73	=73
16CLL	8ee'L)	<
16B	.	.
16G	(8eeJ	.
16BJJ	.	.
16CLL	8ccc'L)	.
16A	.	.
16G	(8cccJ	.
16AJJ	.	[
=74	=74	=74
16BBLL	(4dd#)	fzp
16A	.	.
16F#	.	.
16AJJ	.	.
16CLL	8ee'L)	.
16G	.	.
16E	(8eeJ	.
16GJJ	.	.
=75	=75	=75
16AALL	8ff#'L)	.
16F#	.	.
16C	8ff#'J	.
16F#JJ	.	.
.	(ee16qqP	.
16BBLL	(8dd#pL)	.
16A	.	.
16F#	16cc#L	.
16AJJ	16bJJ	.
=76	=76	=76
4E 4G	4ee)	.
8EE	8r	.
!!LO:LB:g=z
=:|!|:	=:|!|:	=:|!|:
*>F	*>F	*>F
*k[f#c#g#d#]	*k[f#c#g#d#]	*k[f#c#g#d#]
8r	8gg#'	mf
*clefG2	*	*clefG2
=77	=77	=77
!	!	!LO:DY:b=2
16eLL	(8.gg#L	mf
16b	.	.
16g#	.	.
16bJJ	16aaJk	.
16eLL	8bb'L)	.
16b	.	.
16g#	8ee`J	.
16bJJ	.	.
=78	=78	=78
16BLL	(8dd#L	.
16a	.	.
16f#	8ff#'J)	.
16aJJ	.	.
16BLL	8r	.
16a	.	.
16f#	8b'	.
16aJJ	.	.
=79	=79	=79
16eLL	(16dd#LL	.
16b	16ee	.
16g#	16dd#	.
16bJJ	16eeJJ	.
16d#LL	16ee#LL	.
16b	16ff#	.
16f#	16ee#	.
16bJJ	16ff#JJ	.
!!LO:LB:g=z
=80	=80	=80
.	(aa8qqP	.
16eLL	4gg#pt)	.
16b	.	.
16g#	.	.
16bJJ	.	.
16BLL	8ff#'L)	.
16b	.	.
16d#	8ff#'J	.
16bJJ	.	.
=81	=81	=81
16eLL	(16ff#LL	.
16b	16gg#	.
16g#	16ff#	.
16bJJ	16gg#JJ	.
16eLL	8aa#'L)	.
16cc#	.	.
16f#	8aa#`J	.
16cc#JJ	.	.
=82	=82	=82
16d#LL	4.bb	.
16b	.	.
16f#	.	.
16bJJ	.	.
16d#LL	.	.
16b	.	.
16f#	8ff#'	.
16bJJ	.	.
=83	=83	=83
4e	(16ff#LL	.
.	16ee	.
.	16gg#	.
.	16eeJJ	.
8r	16dd#LL	.
.	16cc#	.
8f#'	16b	.
.	16a#JJ	.
*clefF4	*	*clefF4
=84	=84	=84
(4B	4b)	.
8BB)	8r	.
!!LO:LB:g=z
=:|!|:	=:|!|:	=:|!|:
*>G	*>G	*>G
8r	8ff#'	.
*clefG2	*	*clefG2
=85	=85	=85
16BLL	(16ee#LL	.
16a	16ff#	.
16f#	16ee#	.
16aJJ	16ff#JJ	.
16BLL	8aaL	.
16a	.	.
16f#	8dd#J)	.
16aJJ	.	.
=86	=86	=86
16BLL	(8.eenL	.
16g#	.	.
16e	.	.
16g#JJ	16gg#Jk	.
16BLL	8bbL)	.
16g#	.	.
16e	8bb`J	.
16g#JJ	.	.
=87	=87	=87
16BLL	(16ee#LL	<
16a	16ff#	.
16f#	16ee#	.
16aJJ	16ff#JJ	.
16BLL	8aaL	.
16a	.	.
16f#	8dd#J)	.
16aJJ	.	.
=88	=88	=88
16BLL	(8.eenL	.
16g#	.	.
16e	.	.
16g#JJ	16gg#Jk	.
16BLL	8bbL)	.
16g#	.	.
16e	(8bbJ	.
16g#JJ	.	.
!!LO:LB:g=z
=89	=89	=89
16BLL	8aa'L)	.
16f#	.	.
16d#	(8aaJ	.
16f#JJ	.	.
16BLL	8gg#'L)	.
16g#	.	.
16e	(8gg#J	.
16g#JJ	.	.
=90	=90	=90
4B	16ff#LL)	f
.	(16bb	.
.	16aa#	.
.	16gg#JJ	.
4r	16ff#LL	.
.	16ee	.
.	16dd#	.
.	16cc#JJ	.
*clefF4	*	*clefF4
=91	=91	=91
4BB	16bLL)	.
.	(16b	.
.	16a#	.
.	16g#JJ	.
4r	16f#LL	.
.	16e	.
.	16d#	.
.	16c#JJ	.
=92	=92	=92
4.BBB;	4.B;)	.
8r	8gg#'	mf
*clefG2	*	*clefG2
=93	=93	=93
16eLL	(8.gg#L	.
16b	.	.
16g#	.	.
16bJJ	16aaJk	.
16eLL	8bbL)	.
16b	.	.
16g#	8ee`J	.
16bJJ	.	.
!!LO:LB:g=z
=94	=94	=94
16BLL	(8dd#L	.
16a	.	.
16f#	8ff#'J)	.
16aJJ	.	.
16BLL	8r	.
16a	.	.
16f#	8b'	.
16aJJ	.	.
=95	=95	=95
16eLL	(16dd#LL	.
16b	16ee	.
16g#	16dd#	.
16bJJ	16eeJJ	.
16d#LL	16ee#LL	.
16b	16ff#	.
16f#	16ee#	.
16bJJ	16ff#JJ	.
=96	=96	=96
.	(aa8qqP	.
16eLL	4gg#pt)	.
16b	.	.
16g#	.	.
16bJJ	.	.
16BLL	8ff#'L)	.
16b	.	<
16d#	(8ff#J	.
16bJJ	.	.
=97	=97	=97
16eLL	8gg#'L)	.
16b	.	.
16g#	(8gg#J	.
16bJJ	.	.
16c#LL	8aa'L)	.
16a	.	[
16e	(8aaJ	.
16aJJ	.	.
!!LO:LB:g=z
=98	=98	=98
16G#LL	4bb)	>
16e	.	]
16B	.	.
16eJJ	.	.
.	(ccc#16qqP	.
16G#LL	(8bbpL)	.
16e	.	.
16B	16aaL	.
16eJJ	16gg#JJ	.
=99	=99	=99
16ALL	8ff#'L)	.
16f#	.	.
16c#	8ff#'J	.
16f#JJ	.	.
.	(ee16qqP	.
16BLL	(8dd#pL)	.
16a	.	.
16f#	16cc#L	.
16aJJ	16bJJ	.
=100	=100	=100
4e 4g#	4ee)	.
*clefF4	*	*clefF4
8E	8r	.
=:|!	=:|!	=:|!
*>H	*>H	*>H
*k[f#]	*k[f#]	*k[f#]
8r	8g'	p
=101	=101	=101
!	!	!LO:DY:b=2
16ELL	(8.gL	p
16B	.	.
16G	.	.
16BJJ	16aJk	.
16ELL	8b'L)	.
16B	.	.
16G	8ee`J	.
16BJJ	.	.
!!LO:LB:g=z
=102	=102	=102
16F#LL	(8dd#L	.
16B	.	.
16A	8ff#'J)	.
16BJJ	.	.
16F#LL	8r	.
16B	.	.
16A	(8b	.
16BJJ	.	.
=103	=103	=103
16ELL	8ee'L)	.
16B	.	.
16G	(8eeJ	.
16BJJ	.	.
16D#LL	8ff#'L)	.
16B	.	.
16F#	(8ff#J	.
16BJJ	.	.
=104	=104	=104
.	(aa8qqP	.
16ELL	4ggpT)	.
16B	.	.
16G	.	.
16BJJ	.	.
16BBLL	8ff#'L)	.
16B	.	.
16D#	8ff#'J	.
16BJJ	.	.
=105	=105	=105
16ELL	(8.ggL	<
16B	.	.
16G	.	.
16BJJ	16aaJk	.
16ELL	8bbL)	.
16B	.	.
16G	8bb`J	.
16BJJ	.	[[
!!LO:LB:g=z
=106	=106	=106
16CLL	(8aaL	.
16A	.	.
16E	8ccc'J)	.
16AJJ	.	.
16CLL	8r	.
16A	.	.
16E	(8aa	.
16AJJ	.	.
=107	=107	=107
16DLL	8ff#'L)	.
16c	.	.
16A	8ff#`J	.
16cJJ	.	.
.	(gg16qqP	.
16DLL	(8ff#pL)	>
16c	.	.
16A	16eeL	.
16cJJ	16ddJJ	.
=108	=108	=108
4G 4B	4gg)	]
8GG	8r	.
8r	8g'	p
=109	=109	=109
!	!	!LO:DY:b=2
16ELL	(8.gL	p
16B	.	.
16G	.	.
16BJJ	16aJk	.
16ELL	8b'L)	.
16B	.	.
16G	8ee`J	.
16BJJ	.	.
!!LO:LB:g=z
=110	=110	=110
16F#LL	8dd#'	.
16B	.	.
16A	(4bb	fz
16BJJ	.	.
16F#LL	.	.
16B	.	.
16A	16ff#LL	p
16BJJ	16dd#JJ	.
=111	=111	=111
16ELL	(8bbL)	.
16B	.	.
16G	16ggL	.
16BJJ	16eeJJ	.
16D#LL	(8cccL)	.
16B	.	.
16F#	16aaL	.
16BJJ	16ff#JJ	.
=112	=112	=112
.	(ff#8qqP	.
16ELL	4ggpT)	.
16B	.	.
16G	.	.
16BJJ	.	.
16BBLL	8ff#'L)	.
16B	.	.
16D#	8ff#'J	mf
16BJJ	.	.
=113	=113	=113
16ELL	(8.ggL	<
16B	.	.
16G	.	.
16BJJ	16aaJk	.
16ELL	8bbL)	.
16B	.	.
16G	8bb'J	.
16BJJ	.	[[
!!LO:LB:g=z
=114	=114	=114
16CLL	(16aaLL	f
16A	16ccc	.
16E	16eee	.
16AJJ	16dddJJ	.
16CLL	16cccLL	.
16A	16bb	.
16E	16aa	.
16AJJ	16ggJJ	.
=115	=115	=115
16DLL	8ff#`L)	.
16c	.	.
16A	8aa`J	.
16cJJ	.	.
16DLL	(8cccL	.
16c	.	.
16A	16aaL	.
16cJJ	16ff#JJ	.
=116	=116	=116
4G 4B	4gg)	.
8GG	8r	.
8r	8bb'	p
*clefG2	*	*clefG2
=117	=117	=117
!	!	!LO:DY:b=2
16BLL	(8bbL	p
16g	.	.
16d	8cccJ	.
16gJJ	.	.
16BLL	8ccc#L	.
16g	.	.
16d	8ddd'J)	.
16gJJ	.	.
=118	=118	=118
16cLL	(8dddL	.
16g	.	.
16e	8ee'J)	.
16gJJ	.	.
16cLL	(16ffnLL	.
16g	16ff#	.
16e	16gg	.
16gJJ	16gg#JJ	.
!!LO:LB:g=z
=119	=119	=119
16ALL	8aaSSsL	.
16f#	.	.
16c	8bbJ)	.
16f#JJ	.	.
16ALL	(8bbL	.
16f#	.	.
16c	8ccc'J)	.
16f#JJ	.	.
=120	=120	=120
16BLL	(4ccc	.
16f#	.	.
16d#	.	.
16f#JJ	.	.
*clefF4	*	*clefF4
16ALL	8dd#'L)	.
16d#X	.	.
16B	(8bJ	.
16d#JJ	.	.
=121	=121	=121
16GLL	8ee'L)	.
16e	.	.
16B	(8eeJ	.
16eJJ	.	<
16D#LL	8ff#'L)	.
16B	.	.
16F#	(8ff#J	.
16BJJ	.	[[
=122	=122	=122
.	(aa8qqP	>
16ELL	4ggpT)	.
16B	.	.
16G	.	.
16BJJ	.	]
16BBLL	8ff#'L)	.
16B	.	.
16D#	(8bbJ	.
16BJJ	.	.
!!LO:LB:g=z
=123	=123	=123
16CLL	8ee'L)	<
16B	.	.
16G	(8eeJ	.
16BJJ	.	.
16CLL	8ccc'L)	.
16A	.	.
16G	8cccJ	.
16AJJ	.	[[
=124	=124	=124
16BBLL	(4dd#	fz
16A	.	.
16F#	.	.
16AJJ	.	.
16CLL	8ee'L)	.
16G	.	.
16E	(8eeJ	p
16GJJ	.	.
=125	=125	=125
16AALL	8ff#'L)	.
16F#	.	.
16C	8ff#'J	.
16F#JJ	.	.
.	(ee16qqP	.
16BBLL	(8dd#pL)	.
16A	.	.
16F#	16cc#L	.
16AJJ	16bJJ	.
=126	=126	=126
4E 4G	4ee)	.
8EE	8r	.
8r	8bb'	.
*clefG2	*	*clefG2
=127	=127	=127
16BLL	(16bbLL	<
16g	16ccc	.
16d	16ddd)	.
16gJJ	16ddd`JJ	.
16BLL	16ddd`LL	.
16g	16ddd`	.
16d	16ddd`	.
16gJJ	16ddd`JJ	[[
!!LO:LB:g=z
=128	=128	=128
16cLL	(8dddL	>
16g	.	.
16e	8ee'J)	]
16gJJ	.	.
16cLL	8r	.
16g	.	.
16e	8ee'	.
16gJJ	.	.
=129	=129	=129
16ALL	(16aaLL	<
16f#	16bb	.
16c	16ccc)	.
16f#JJ	16ccc`JJ	.
16ALL	16ccc`LL	.
16f#	16ccc`	.
16c	16ccc`	.
16f#JJ	16ccc`JJ	[
=130	=130	=130
16BLL	(8cccL	>
16f#	.	.
16d#	8dd#'J)	]
16f#JJ	.	.
*clefF4	*	*clefF4
16ALL	8r	.
16d#	.	.
16B	8b'	.
16d#JJ	.	.
=131	=131	=131
16GLL	(16dd#LL	<
16e	16ee	.
16B	16dd#	.
16eJJ	16eeJJ	.
16D#LL	8ff#'L)	.
16B	.	.
16F#	(8ff#'J	[
16BJJ	.	.
!!LO:LB:g=z
=132	=132	=132
.	(aa8qqP	.
16ELL	4ggpT)	>
16B	.	]
16G	.	.
16BJJ	.	.
16BBLL	8ff#'L)	.
16B	.	.
16D#	[8bbJ	.
16BJJ	.	.
=133	=133	=133
16CLL	(8bb]	<
16B	.	.
16G	4ee)	.
16BJJ	.	.
16CLL	.	.
16A	.	.
16G	(8ccc	.
16AJJ	.	[[
=134	=134	=134
16BBLL	8dd#'L)	f
16A	.	.
16F#	(8dd#J	.
16AJJ	.	.
16CLL	8ee'L)	.
16G	.	.
16E	8ee'J	.
16GJJ	.	.
=135	=135	=135
8AA' 8A'	8r	.
8r	8a' 8ff#'	.
8BB' 8B'	8r	.
8r	8f#' 8dd#'	.
=136	=136	=136
4EE 4E	4e 4ee	.
8r	8r	.
==	==	==
*-	*-	*-
!!!RDF**kern: > = above
!!!RDF**kern: < = below
!!!PPR: Universal Edition 1
!!!PTL: Haydn Piano Sonatas, Vol. 2, No. 14
!!!YOY: 1901
!!!ONB: Stich und Druck von Jos. Eberle & Co. Wien VII. Seidengasse 3-9
!!!ONM-ue: II:14.3
!!!YEC: 2021 Craig Stuart Sapp
!!!YEM: Licence: (CC BY-NC-SA 4.0) https://creativecommons.org/licenses/by-nc-sa/4.0
!!!YER: 2021
!!!ENC: Craig Stuart Sapp
!!!END: 2009/08/26
!!!EED: Craig Stuart Sapp
!!!EEV: 2021/02/02
!!!YEC: 2021 Craig Stuart Sapp
!!!URL: https://github.com/craigsapp/haydn-keyboard-sonatas
!!!URL-vhv: https://verovio.humdrum.org?file=haydn/sonatas/sonata53-3.krn
!!!URL-pdf: https://github.com/craigsapp/haydn-keyboard-sonatas/raw/master/reference-edition/sonata53-3.pdf
!!!title: @{OTL}, mvmt. @{OMV} (@{SCT}), UE @ONM-ue
